frontend/reply-module/src/assets/svg/like.svg

<svg fill="none" height="16" viewBox="0 0 16 16" width="16" xmlns="http://www.w3.org/2000/svg"><path d="m2.66659 14.0002h.66666v-8.6667h-.66666c-.35363 0-.69277.14047-.94281.39052-.25005.25005-.39053.58919-.39053.94281v5.99997c0 .3537.14048.6928.39053.9428.25004.2501.58918.3906.94281.3906zm10.66671-8.6667h-4.66671l.748-2.24534c.06674-.20039.08492-.41377.05304-.62256-.03187-.20879-.1129-.40703-.23639-.57837-.1235-.17135-.28594-.31091-.47393-.40718-.188-.09627-.39618-.1465-.60739-.14655h-.15l-3.33333 3.62533v9.04137h7.33331l2.608-5.7307.0587-.26934v-1.33333c0-.35362-.1405-.69276-.3905-.94281-.2501-.25005-.5892-.39052-.9428-.39052z" fill="#303030"/></svg>

<svg width="16" height="16" viewBox="0 0 16 16" fill="none" xmlns="http://www.w3.org/2000/svg">
	<path
		d="M2.66659 14.0002H3.33325V5.3335H2.66659C2.31296 5.3335 1.97382 5.47397 1.72378 5.72402C1.47373 5.97407 1.33325 6.31321 1.33325 6.66683V12.6668C1.33325 13.0205 1.47373 13.3596 1.72378 13.6096C1.97382 13.8597 2.31296 14.0002 2.66659 14.0002ZM13.3333 5.3335H8.66659L9.41459 3.08816C9.48133 2.88777 9.49951 2.67439 9.46763 2.4656C9.43576 2.25681 9.35473 2.05857 9.23124 1.88723C9.10774 1.71588 8.9453 1.57632 8.75731 1.48005C8.56931 1.38378 8.36113 1.33355 8.14992 1.3335H7.99992L4.66659 4.95883V14.0002H11.9999L14.6079 8.2695L14.6666 8.00016V6.66683C14.6666 6.31321 14.5261 5.97407 14.2761 5.72402C14.026 5.47397 13.6869 5.3335 13.3333 5.3335V5.3335Z"
		fill="#303030"
	/>
</svg>
